X: 38552
T: Stewart Chisholm's Walkabout
R: jig
M: 6/8
K: Bminor
|:f|BBB d2 e|fBB d2 e|fBB fed|cAA A2 f|
BBB d2 e|fBB d2 e|faa fef|dBB B2:|
|:f|aff f2 e|fBB d2 f|aff faa|cAA A2 f|
[1 aff f2 e|fBB d2 e|faa fef|dBB B2:|
[2 BBB d2 e|fBB d2 e|faa fef|dBB B2||
|:f|BBB fee|fBB f2 e|BBB fed|cAA A2 f|
BBB fee|fBB fee|faa fef|dBB B2:|
e|faa fee|faa f2 e|faa fed|cAA A2 e|
faa fee|fae fee|faa fef|dBB B2 e|
faa fee|faa f2 e|faa fed|cAA A2 f|
BBB fee|Bff fee|faa fef|dBB B2 z||

